/* XPM */
static char *texture[] = {
"64 64 30 2",
"AA c #1B0E1C",
"AB c #2E172D",
"AC c #351B44",
"AD c #342A2D",
"AE c #3E224B",
"AF c #401E3C",
"AG c #423136",
"AH c #4E2E57",
"AI c #5E2E80",
"AJ c #504B39",
"AK c #5B5344",
"AL c #633A74",
"AM c #6A3887",
"AN c #665059",
"AO c #77468C",
"AP c #716D4C",
"AQ c #895599",
"AR c #87785A",
"AS c #96649D",
"AT c #8C845A",
"AU c #A570A9",
"AV c #B19677",
"AW c #B89F80",
"AX c #BCA07E",
"AY c #BCA385",
"AZ c #C4A67E",
"Aa c #CEB38D",
"Ab c #DCC29A",
"Ac c #ECD4AA",
"Ad c #F7E2B9",
"AAABABABABABABABABABABABABABABABABABABABABABABABABABABABABABABABABABABABABABABABABABABABABABABABABABABABABABABABABABABABABABABAA",
"ABAHAGABABAGAGAGAFAGABAGAGAGADAGABAFABABABAGAGAGABABABABAGABABABABABABADAGABABAGAGABABAGADABABADAGAGABABADADABABABADAGAGAGAGAHAB",
"ABAGAAABAAAAABABAAABABAAAAAAABAAABADAAABAAAAAAAAAAAAAAABAAAAABANANABAAAAABAAAAAAAAAAAAAAABAAADABAAABABAAAAABABAAABABABAAAAAAADAB",
"ABADABADAJADABABAHANASAAABABABADAPARAGABABABANATATATAJABABAAANASAQANAAABABAJATATATANABABABADARAPADABABABAAASANAHABABABAJADABABAB",
"ABABABAGAPAPAAAHASAQAHABABABABAPADADADABAAATAPAGADAJATAJABAAAHAQAQAHAAABAGATAJADAJARAPABABADADADARABABABABAHAQASAHAAANAPADABABAB",
"ABABABADAPAKABABAQAMAQABABABAGAPABABABABANAPABABABAAADATADADASALALAQAHADATADAAABABABAPAPAAABABAAANAJABABABAUAQAQAHABAKAPADABABAB",
"ABAGABABADADASAOAKAMAHABABABADAPADABABAJAKAJAAABADABABAJAPAAAHAQAQAHABAPAJABABADABAAAJANAJADABADAPADABABABAHAMANANASADADABABABAB",
"ABADABABAAAHAOAOANALAAABABABABAJAPAJAPAPADAPABADAPADABABAKAHAQAHAHAQAHAJADABADAPADAAAPADANAPAKAPAJABABABABAAALALAOAQAHAAABABABAB",
"ABADAAABAAAHAMAUAQAQAAABABABABABAGAKAJABAAAPAJABAKADABABAJABAOAOAOAOABAJADABADAPABAJAPAAABAJAKAGABABABABABAAAQAQAUAMAHAAABABABAB",
"ABABABABANAOALANAMAAABABADARABABABAAABABABABAKAPAJABADAPAKABAHAIAHAHAAAKAPADABAGAPANABABABABAAABABAAARADABABAAAMANALAOAHABABABAB",
"ABAGABABANAQAHAHAQANAAAJATAJABABABABABABAAAAAAAAAAABABABAJAPABAHAHABAPAKABABABABAAAAABABABABABABABABAGATAGAAANAQAHAKAQAHAAABABAB",
"ABADABABAQAMAUAMALAAAJATAPAAABABAJAJABAGAHAHAGABABABABABAAAGAJADAGAJAJAAABAAABABABABABABABABADAKADABAAAKATAJAAALAOAUAMAOABABABAB",
"ABABAAAAACAMAHAMAHABAPAJADAJAJAKAJABABABABABABABABABABABABAAADAGADADAAABABABAAABAHAGAFABABABABAGAKAKAJADAJAPABAHAOAHALACAAABABAB",
"ABABAAAQALADAHACAAADANADAKAPAPAGABABABABABABABABABABABABABABABADADAAABABABABAAAHABABABABABABABABADAJAPAPADAKADAAAHAHAGALAQAAABAB",
"ABABABAQAQANAOASAHAJADADABABABABABABABABABABABABABABAAAAAAAAAAAAAAABABABABABABAFABABABABABABABABABABABABADADAJADASAMANAQAQABABAB",
"ABAGAAAHAMASAMAHAAAJABAAABABABABABABABABABABABABABABABAHAHAHAHABABABABABABAAAHABABABABABABABABABABABABABAAABAKAAAHAMASAMAEAAABAB",
"ABAHAAABAMAHAMABADABADADABABABABABABABABABABABABABAAAHABABABABABAHABABABABABABABABABABABABABABABABABABABADADABAGABAMAHAMABAAABAB",
"ABABAAAAAAAKAAABABAJANABABABABABABABABABABABABABABAAABABABABABABABAFABAAAAAHABABABABABABABABABABABABABABABAPAJABABAAAJAAAAAAABAB",
"ABADADAJAAAKAAABADAPABABABAAABABADADADADABABADADABABAAABABABABABABABABAAABABABABABADADADADADADADABABAAABABABAPAGABAAAKAAAJADABAB",
"ABABADATABAPAAABAPADABABABAGAcAdAdAdAdAdAdAdAdAdAdAcAAABABABABABABABABABABABABABARAcAdAdAdAdAdAdAdAcAGABABABADAPABAAAPABATADABAB",
"ABADAAAPAKAPAAAJAJAAABABABABANAPAaAdAdAdAdAdAcAVAKAHAAABABABABABABABABABABABABAAAGAKAVAcAdAdAdAcARANABABABABAAAJAJAAAPAJAPAAABAB",
"ABADAAAJAPAJAAAPABADAPAGABABAAAAAJAbAdAdAdAdAVABAAABAGABABABABABABABABAAABABAAABABAAABAaAdAdAcAPABAAAAABADARAGABAPABAKAPAJAAABAB",
"ABABABABAPAKAGAJAGATAGABABABABABADAVAdAdAdAdAXABABAFABABABAKAKAKAKAKAKAKABABAHABABABADAaAdAdAaAGABABABAAAAAJATAGAJAGANAPAAABABAB",
"ABABABABADAPAJADARAJABABABABABABAAANAcAdAdAdAcANABABABABADAbAdAdAdAdAcAcAKABABABABAAARAcAdAcARAAABABABAAABABAJAPADAJAPADABABABAB",
"ABABABADAAAPAJAJAKAAABABABABABABABAJAbAdAdAdAcANAAABABABAAAHAaAdAdAdAaANABABABABABAAATAdAdAcANABABABABAAABABAAAKAJAJAPAAABABABAB",
"ABABAGAPAAAJAJAPABABABABABABABABABAAAPAcAdAdAdAaAAABABAAABABADAbAdAcANAAABABABABABAAAaAdAdAVAAABABABABAAABAAABABAPAGAJAAARAGABAB",
"ABABADARAJADAPADABAAASANABABABABABABANAcAdAdAdAcAAAAAAAHABABADAcAdAdAaAAABABABABABAGAcAdAcAPAAABABABAAABAHASAAABADANADAJAPADABAB",
"ABABAAAPAPADAPAAAAAUAQAHAAABABABABABAAAVAdAdAdAcARAAAHABABAAAVAdAdAdAcAKABABABABABAVAdAdAbAAABABABABABABAHAQAUAAAAAPADAPANAAABAB",
"ABADAAADAPADAJAAAHAQASAQAHABABABABABAAARAcAdAdAdAVAAABABABAAAaAdAdAdAcANABABABABAAAWAdAdAZAAABABABABAAAHAQASAQANAAAJADAPADAAABAB",
"ABABABABAJADAGAAABAOAOANABABABABABABABADAcAdAdAdAaAGABABABAGAcAdAdAdAdAVADABABABAKAbAdAcANABABABABABABABANAOAOABAAADADAKAAABABAB",
"ABABABABADADADADAUAHAHABABABABABABABABAAAVAdAdAdAcANABABAAANAcAdAdAdAdAcAGABABAAATAcAdAcABABABABABAAABABABAHAHASAHADADADABABABAB",
"ABABABABAAADAAANAQASAQANAAAAAAABABABABAAAKAcAdAdAdAXABABADAYAdAdAcAdAdAdAVAAABAAAVAdAdAYAAABABABAAABABABANAQASAQALAAADAAABABABAB",
"ABABABABAAADAAACAMASAMAHABAHAGABABABABABADAcAdAdAdAcABABADAcAdAcAbAdAdAdAaAAABANAcAdAcAGABABABAAABAFABABAHAOASAMACAAADAAABABABAB",
"ABABAAAHAQAAAHAQAHAHAHAAABABABABABAAAAAAABAVAdAdAdAcAPAAARAcAdAYAVAcAdAdAdANAAANAcAdAbAGABABABADABABABABAAAHAHAHAQAHAAASAHAAABAB",
"ABABAHASAQASABAQAOANAQAHABABABABABABABAHABAJAcAdAdAdAVAAAYAdAcARAJAbAdAdAdAVAAAaAdAdARAAABAAAGABABABABABAHASANAOAQABAQAQASAHABAB",
"ABABAAALASAHABAHAOAQAHAAABABABABABABABABABAGAaAdAdAdAbAAAcAdAbAKAGAaAdAdAdAcAAAcAdAdANAAAAAHAGABABABABABAAAHAQAQAHABAHASAOAAABAB",
"ABABABAHAOAOANABAHAMAEABABABABABABABABABABAAAVAcAdAdAcANAdAdAVAAAAARAcAdAdAcANAcAdAcADABAAAGABABABABABABABAEAMAHABANAQANAHABABAB",
"ABABABASANAOAOABAHACAAABABABABABABABABABABAAARAcAdAdAdAaAdAcARAAAAAPAcAdAdAdAaAdAdAaABABABABABABABABABABABAAACAHABANAOANASABABAB",
"ABABAAALAOAOAOABAJAAABABABABADABABABABABABABAAAaAdAdAdAcAdAaAAABABAAAVAdAdAdAcAdAcAGAAABABAAABABABADABABABABAAAKABAOAOAOALAAABAB",
"ABAGABAHAMAOAHABAPAAABABADAPAPABABABABABABABAAAVAdAdAdAdAdAVAAABABAAATAcAdAdAdAdAbAGABABABAAABABABAPAPABABABAAAPABAHAOAMAHABABAB",
"ABABADAQAOANAOAHAJAAADABAPAPAJABABABABABABABAAAGAcAdAdAdAcAJABABABABADAbAdAdAdAcARABABABABABABABABAJAPAPABADAAAJAHAQANAMAQADABAB",
"ABABAAAEAMASAMAQANADAPAGAPATADABABABABABABABABABAaAdAdAdAbAAABABABABAAAZAcAdAdAcAKABABABABABABABABADARAPAJAPADANAQAOAUAMAEAAABAB",
"ABABAAAHAOAOAOAMAHADAPAKAPAJABABABABABABABABABABATAdAdAcAVAAABABABABAAARAcAdAdAaADABABABABABABABABABAJAPANANADAHAMAOAQAOAHAAABAB",
"ABADABABAHAHAHACADADAPAPAPABABABABABABABABABABABADAcAdAcAGABABABABABABADAaAdAcARAAABABABABABABAAAAABABAPAPAKADAGABAHAHAHABABABAB",
"ABADABABAAABAKABAUABAKAKAJAAADAPAKABABABABABABABAAAZAcAaAAABABABABABABAAAVAcAcAGABABABABABABABANAPADAAAJAKAKABAUADAKABAAABABADAB",
"ABADABABABANAKAOAQANAJAPABAJAPAPAJADABABAAAAAAAAAAANARAPAAABABABABABABAAAGARARADABABABABABABADAKAPAPAJABAPAGAHAQAOAKANAAABABABAB",
"ABABAAABAAAOAOASAMAQADAJAGAPAPADAAABABABAAAHABAGABAAAAAAABABABAHAKABABABAAAAAAAAABABABABABAAABAAADAPAPADAJADAOAMAUAOAOAAABAAABAB",
"ABABAGAPAAABAOAOAOAHADADAJAPADABABABABAAAGABABABABABABABABABAHAQAQAHABABAGABABAGABABABABAAABABABABADAPAKADADAEAQAQAOABAAAPAGABAB",
"ABABADAPARABABAHAHAAAJADAPADABABADAGAGAAABABABABABABABABABAAAEASASAHAAABABABABABAFABABABAAAGAGADABABADAPADAJABAHAHABABAPAPADABAB",
"ABABAAAPAPATABAAAJAAADAGAJABABADAPAPAPAPAAABABABABABABABABAHASAHAHAQAHABABABABABABABAAAAAPATAPARAGABAAAJAGADAAAJAAABATAPAPAAABAB",
"ABABAAAGATAKARAAADAGADAKADABABATAJAAABAPADABABAAAAABAAAAAAABAHAQAQAHAAABABABABABABABABADATABAAADATABABADAJADAGAGAAATANAPAJAAABAB",
"ABADABABAPAPAPAKAAAPAAAJADABAJAPAAABAAAKADAAAHAHAFAHAHABAAAUAQAHAHAQAUAAABABABABABABABADAPAAABABANAJABADAKABAPAAAKAPAPAPAAABABAB",
"ABADABABABAPAPAPADADAJAJADABAJAJABABAKAKAAABABABABABABABABAHAQAOAQAQAHAAABABABABABABABABAJAPABABAJAJABADAJAJADADAPAPAPABABABABAB",
"ABADABABABABAJAPAPABAJAGAJAAAJANABABABABABAGATATATAPADABABAAAHAMAMAHAAABABABAPATATATAJABABAAABABAJAJAAAJAJAJABAPAPAJAAABABABABAB",
"ABAGABABABABAAADAJAPABAJANABADAPABABABABAGARADABABAJARABAAASAOAHAHANASAAABARAJABABADARAGABABABAAARADABAPAJAAAPAJADAAABABABABABAB",
"ABABABABABAJAPAJAGAJAJABAJAJAAAPAJABABAAATADABABABAAAPABAAAHAQAOAOAQAHAAABATAAABABABADATABABABAJAPAAAJAJADAJAJAGAJANAJABABABABAB",
"ABABABABANAPAPAPAJADADAJADAJAJADAPADABAAATABABADADABAPABABABAOAMAMAMABABABAPABADADABABATAAABADAPADAGAJADAJADADAJAPAPAPAPAAABABAB",
"ABABAAADAPAPAGABAAAAAAAAADADAJAJADAPADAAAPABABABAJAPAGAAABABACAHAHACABABAAAGAPAKABABABAPAAADAPAGAGAJADADAAAAAAAAABAJAPAPADAAABAB",
"ABADABADAPAJAAABADAQAMAHADADAAADADAGAPAGAJAJABABABABABABAJABABADADABABAJADABABABABABAJAJADAPAJADADAAADADAHAOAQADABAAAJAPADABABAB",
"ABABABABAPABABADAQAOAHAHAAABANAPAJAGADAPADAPAJAAABABABAAANAPABADADABAPAPAAABABABAAAJAPAGAPADADAJAPANABAAAHAMAOAQADABABAPABABABAB",
"ABABABABADABABABAHAOAOABABAPAPAJABAAAAAAADADAPAPAJADADABABAJAJADADAJAJABAAADADAJAPAPADADAAAAAAABAJAPAPABABAMAMAHABABABADABABABAB",
"ABAGAAABAAAAABABAAABAAAAAAABAAAAABABABABAAAAABADAGAJADABAAAAADADADADAAAAABADAJAGADABAAAAABABABABAAAAABAAAAAAABAAABABAAAAABAAABAB",
"ABAHAGABABABADADABABABABABABABABABABABABABABABABABABABABABABABABABABABABABABABABABABADABABADABADABABABABABABABABABADABABABAGAHAB",
"ABABABABABABABABABABABABABABABABABABABABABABABABABABABABABABABABABABABABABABABABABABABABABABABABABABABABABABABABABABABABABABABAB"
};
